shader_type spatial;
uniform float strength = 0.0;


void vertex() {
	// Called for every vertex the material is visible on.
}

void fragment() {
	ALBEDO = vec3(0.9, 1.0, 0.0);
	ALPHA = strength;
}

//void light() {
	// Called for every pixel for every light affecting the material.
	// Uncomment to replace the default light processing function with this one.
//}
